!!!!SEGMENT: pl-cz--ii-87--009-006_chwalibog-izydor-konstanty--msza-zalobna-agnus.krn
!!!cenid: 18xx:1212
!!!COM: Chwalibóg, Izydor Konstanty
!!!COM-rismid: pe30020334
!!!CDT: 1826-1897
!!!CNT:
!!!OPR: Msza żałobna
!!!OTL: Agnus
!!!OMV: 006
!!!PDT: 1888
!!!AGN: Sacred; Mass
!!!SMS-siglum: PL-CZ
!!!SMS-shelfmark: II-87
!!!SMS-shelfwork: 009-006 M
!!!SMS-variant:
!!!SMS-altvar:
!!!NIFC-rismid: 300033232
!!!URL-scan: http://repozytorium.nifc.pl/skany/pl-cz-nut--ii-87
!!!ONB-nifc: UWAGA: części Mszy: Kirie, Graduale, Offertorium, Sanctus, Benedictus, Agnus
!!!AIN: 1 bass 1 organ 1 tenor
!!!key: b-
**kern	**kern	**kern	**text	**kern	**text
*part3	*part3	*part2	*part2	*part1	*part1
*staff4	*staff3	*staff2	*staff2	*staff1	*staff1
*IGacmp	*IGacmp	*IGcoro	*	*IGcoro	*
*ICklav	*ICklav	*ICvox	*	*ICvox	*
*Iorgan	*Iorgan	*Ibass	*	*Itenor	*
*I"Organ	*	*I"Bas	*	*I"Tenory	*
*clefF4	*clefG2	*clefF4	*	*clefG2	*
*k[b-e-a-d-g-]	*k[b-e-a-d-g-]	*k[b-e-a-d-g-]	*	*k[b-e-a-d-g-]	*
*b-:	*b-:	*b-:	*	*b-:	*
*	*	*	*	*ITrd8c12	*
*M4/4	*M4/4	*M4/4	*	*M4/4	*
*met(c)	*met(c)	*met(c)	*	*met(c)	*
=1	=1	=1	=1	=1	=1
*	*	*	*	*^	*
2BB-\	2d-/ 2f	2BB-/	.	2F/	2D-\	Ba-
!LO:TX:a:t=d	!	!	!	!	!	!
2D-\	2B-/ 2f 2b-	4D-\	.	4B-/	4F\	-ran-
.	.	4D-\	.	4B-/	4F\	-ku
=2	=2	=2	=2	=2	=2	=2
2E-\	2B-/ 2g- 2b-	2E-\	.	2.B-/	2G-\	Bo-
4D-\	4f/ 4b-	4D-\	.	.	4F\	.
4C\	4e-/ 4f 4an	4C\	.	4An/	4E-\	-ży
=3	=3	=3	=3	=3	=3	=3
1BB-	2d-/ 2f 2b-	2BB-/	.	2B-/	2D-\	ty
.	4B-/ 4d- 4b-	4BB-\	.	4B-/	4D-\	gła-
.	4B-/ 4d- 4g-	4BB-\	.	4G-/	4D-\	-dzisz
=4	=4	=4	=4	=4	=4	=4
*^	*	*	*	*	*	*
2F/	1AAn	2d-/ 2f	2AAn\	.	2F/	2D-\	grze-
2F/	.	2c/ 2e-	2AA\	.	2E-/	2C\	-chy
=5	=5	=5	=5	=5	=5	=5	=5
!!linebreak:original
2F\	2.BB-\	2c/ 2e-	2BB-/	.	2E-/	2C\	swia-
4G-/	.	4B-/ 4d-	4BB-/	.	4D-/	4BB-\	-ta
4r	4rGGyy	4r	4r	.	4r	4ryy	.
*v	*v	*	*	*	*	*	*
=6	=6	=6	=6	=6	=6	=6
1D-	2f/ 2a-	2.D-\	.	2A-/	2F\	Daj
.	4g-/ 4b-	.	.	4B-/	4G-\	.
.	4a-/ 4cc	4D-\	.	4c/	4A-\	im
=7	=7	=7	=7	=7	=7	=7
1D-	2f/ 2dd-	2D-\	.	2d-/	2F\	wiecz-
.	2f/ 2a-	2D-\	.	2A-/	2F\	-ny
=8	=8	=8	=8	=8	=8	=8
*	*^	*	*	*	*	*
1AA-	2e-/ 2g-	2reyy	1AA-	.	2G-/	2E-\	po-
.	4b-/	2c\ 2g-	.	.	4B-/	2C\	-kój
.	4a-/	.	.	.	4A-/	.	.
*	*v	*v	*	*	*	*	*
=9	=9	=9	=9	=9	=9	=9
2D-\	2d-/ 2f	2D-\	.	2F/	2D-\	.
2r	4e-/ 4g-	2r	.	2r	2r	.
.	4d-/ 4f	.	.	.	.	.
=10	=10	=10	=10	=10	=10	=10
1AA-	2c/ 2e-	2.AA-/	.	2E-/	2C\	Daj
.	4d-/ 4f	.	.	4F/	4D-\	.
.	4e-/ 4g-	4AA-/	.	4G-/	4E-\	im
=11	=11	=11	=11	=11	=11	=11
1AA-	2c/ 2g- 2b-	2.AA-/	.	2B-/	2G-\	wiecz-
.	4d-/ 4f 4a-	.	.	4A-/	4F\	.
.	4e-/ 4g-	4AA-/	.	4G-/	4E-\	-ny
=12	=12	=12	=12	=12	=12	=12
!!pagebreak:original
*	*^	*	*	*	*	*
2AA-/	4.g-/	2c\ 2e-	2AA-/	.	4.G-/	2E-\	po-
.	8f/	.	.	.	8F/	.	.
2AAn\	2f/	2reyy	2AAn/	.	2F/	2E-\	-kój
*	*v	*v	*	*	*	*	*
=13	=13	=13	=13	=13	=13	=13
2BB-\	2d-/ 2f	2BB-\	.	2F/	2D-\	Ba-
2D-\	2B-/ 2f 2b-	4D-\	.	4B-/	4F\	-ran-
.	.	4D-\	.	4B-/	4F\	-ku
=14	=14	=14	=14	=14	=14	=14
*	*^	*	*	*	*	*
2E-\	2.B-/ 2.g- 2.b-	2rAyy	2E-\	.	2.B-/	2G-\	Bo-
4D-\	.	8rcyy	4D-\	.	.	4F\	.
.	.	8f/ 8b-	.	.	.	.	.
4C\	4e-/ 4f 4an	4rcyy	4C\	.	4An/	4E-\	-ży
*	*v	*v	*	*	*	*	*
=15	=15	=15	=15	=15	=15	=15
1BB-	2d-/ 2f 2b-	2BB-/	.	2B-/	2D-\	ty
.	4f/ 4an 4cc	4BB-/	.	4c/	4E-\	gła-
.	4f/ 4b- 4dd-	4BB-/	.	4d-/	4F\	-dzisz
=16	=16	=16	=16	=16	=16	=16
1BB- 1B-	2e-/ 2g- 2ee-	2BB-\	.	2e-/	2G-\	grze-
.	2d-/ 2f 2dd-	2AA-\	.	2d-/	2F\	-chy
=17	=17	=17	=17	=17	=17	=17
*	*^	*	*	*	*	*
2BB-\ 2B-	2.dd-/	2d-/ 2f	2BB-\	.	2d-/	2F\	swia-
2BBn\ 2Bn	.	4d-/ 4g-	2BBn\	.	2d-/	4G-\	-ta
.	4d-/ 4a- 4dd-	4rcyy	.	.	.	4A-\	.
=18	=18	=18	=18	=18	=18	=18	=18
1C	1a- 1cc	2c\	2C\	.	2c/	2A-\	Daj
.	.	2reyy	2C\	.	2c/	2A-\	im
*	*v	*v	*	*	*	*	*
=19	=19	=19	=19	=19	=19	=19
1C	2b-/ 2dd-	2C\	.	2d-/	2B-\	wie-
.	2a-/ 2cc	2C\	.	2c/	2A-\	-czny
=20	=20	=20	=20	=20	=20	=20
1C	2f/ 2a- 2cc	1C	.	2c/	2A-\	po-
!	!LO:N:vis=2	!	!	!	!	!
.	8g-/L 8b-	.	.	2B-/	2G-\	.
.	8c/	.	.	.	.	.
.	8dn/	.	.	.	.	.
.	8en/J	.	.	.	.	.
=21	=21	=21	=21	=21	=21	=21
!!linebreak:original
1C	[2f/ [2a-	2F\	.	2A-/	2F\	-koj
.	8f/L] 8a-]	2r	.	2r	2r	.
.	8c/	.	.	.	.	.
.	8f/	.	.	.	.	.
.	8g-/J	.	.	.	.	.
*	*	*	*	*v	*v	*
=22	=22	=22	=22	=22	=22
*k[b-e-a-d-gn]	*k[b-e-a-d-gn]	*k[b-e-a-d-gn]	*	*k[b-e-a-d-gn]	*
*^	*	*	*	*^	*
!	!	!LO:N:vis=2	!LO:TX:t=P:problem=tonacja zapisana jako BBn	!	!	!	!
2.F\	[<1FF	2.f/ 2.a-	2.F\	.	2.A-/	2.F\	Za
4F\	.	4g/ 4b-	4F\	.	4B-/	4G\	swych
=23	=23	=23	=23	=23	=23	=23	=23
4F/	1FF]	1f 1a- 1cc	2F\	.	2c/	2A-\	bra-
4AA-/	.	.	.	.	.	.	.
4C/	.	.	2F\	.	2c/	2A-\	-ci
4F/	.	.	.	.	.	.	.
*v	*v	*	*	*	*	*	*
=24	=24	=24	=24	=24	=24	=24
1EEn 1En	1g 1b- 1dd-	2.En\	.	2.d-/	2.B-\	wzno-
.	.	4E\	.	4d-/	4B-\	-sim
=25	=25	=25	=25	=25	=25	=25
!	!	!LO:N:vis=2.	!	!	!	!
2.FF\ 2.F	2.f/ 2.a- 2.cc	2F\	.	2c/	2A-\	pie-
.	.	4F\	.	4c/	4A-\	-nia
4E-\	4f/ 4an 4cc 4ff	4r	.	4r	4ryy	.
=26	=26	=26	=26	=26	=26	=26
*	*^	*	*	*	*	*
2D-\	2b-/ 2ff	1f	4D-\	.	4f/	4B-\	Co
.	.	.	4D-\	.	4f/	4B-\	nas
4C\	4an/ 4ee-	.	4C\	.	4e-/	4An\	zgo-
4BB-\	4b-/ 4dd-	.	4BB-\	.	4d-/	4B-\	-nym
*	*v	*v	*	*	*	*	*
=27	=27	=27	=27	=27	=27	=27
2.BB-\	2b-\ 2dd-	2.BB-\	.	2d-/	2B-\	wy-
.	4cc/ 4ee-	.	.	4e-/	4c\	-prze-
4D-\	4b-/ 4dd-	4D-\	.	4d-/	4B-\	.
=28	=28	=28	=28	=28	=28	=28
2F\	2f\ 2an 2cc	4F\	.	4c/	4An\	-dzi-
.	.	4F\	.	4c/	4A\	-li
2FF\ 2F	2f\	2F\	u-	4r	2ryy	.
.	.	.	.	4r	.	.
=29	=29	=29	=29	=29	=29	=29
!!linebreak:original
2E-\	2e-\	2E-\	-króc	1rdd	1rb	.
2D-\	2d-\	2D-\	Pa-	.	.	.
=30	=30	=30	=30	=30	=30	=30
2C\	2c/	2C\	.	1rdd	1rb	.
2BB-\	2B-/	2BB-\	-nie	.	.	.
=31	=31	=31	=31	=31	=31	=31
2r	2b-\ 2dd-	2r	.	2d-/	2B-\	u-
4r	2f/ 2an 2cc	4r	.	2c/	2An\	-króc
4FF/ 4F	.	4F\	o	.	.	.
=32	=32	=32	=32	=32	=32	=32
2GG-X\ 2G-X	2en/ 2b- 2dd-	2G-X\	.	2d-/	2B-\	Pa-
2FF/ 2F	2f/ 2an 2cc	2F\	.	2c/	2An\	-nie
=33	=33	=33	=33	=33	=33	=33
2.En\	2.g/ 2.cc	2.En\	.	2c/	2G\	ich
.	.	.	.	4B-/	4G\	cier-
4C\	4en/ 4g 4b-	4C\	.	4B-/	4En\	.
=34	=34	=34	=34	=34	=34	=34
1BBn	1dn 1f 1a-	1BBn	.	1A-	1F	-pie-
=35	=35	=35	=35	=35	=35	=35
2C\	2c/ 2en 2g	2C\	.	2G/	2En\	-nia
2r	2r	2r	.	2r	2ryy	.
=36	=36	=36	=36	=36	=36	=36
1C	2c/ 2en 2g	2.C\	.	2.G/	2.En\	Spraw
.	2ryy	.	.	.	.	.
.	.	4C\	.	4G/	4E\	by
=37	=37	=37	=37	=37	=37	=37
1C	1c 1f 1a-	2C\	.	2A-/	2F\	wiecz-
.	.	2C\	.	2A-/	2F\	-nie
=38	=38	=38	=38	=38	=38	=38
*	*^	*	*	*	*	*
1En	2cc/	1g 1b-	2En\	.	2c/	2B-\	s to-
.	4dd-/	.	2E\	.	4d-/	2G\	-bą
.	4cc/	.	.	.	4c/	.	.
*	*v	*v	*	*	*	*	*
=39	=39	=39	=39	=39	=39	=39
2.F\	2.f/ 2.a- 2.cc	2F\	.	2c/	2A-\	ży-
.	.	4F\	.	4c/	4A-\	-li
4r	4r	4r	.	4r	4ryy	.
=40	=40	=40	=40	=40	=40	=40
!!pagebreak:original
*	*^	*	*	*	*	*
2D-\	2f/ 2b- 2ff	2reyy	2D-\	.	2f/	2B-\	wiecz-
4C\	4an/ 4ee-	2f\	4C\	.	4e-/	4An\	-nie
4BB-\	4b-/ 4dd-	.	4BB-\	.	4d-/	4B-\	.
*	*v	*v	*	*	*	*	*
=41	=41	=41	=41	=41	=41	=41
1C	2a-/ 2cc	2C\	.	2c/	2A-\	z to-
.	2g/ 2b-	2C\	.	2B-/	2G\	-bą
*	*	*	*	*v	*v	*
=42	=42	=42	=42	=42	=42
*8ba	*	*	*	*	*
*	*	*	*	*^	*
1CC	2f/ 2a-	2C\	.	2A-/	2F\	z to-
.	2en/ 2g	2C\	.	2G/	2En\	-bą
*	*	*	*	*v	*v	*
*X8ba	*	*	*	*	*
=43	=43	=43	=43	=43	=43
2.F\	2.f/	2F\	.	2F/	ży-
.	.	4F\	.	4F/	-li
!	!	!LO:TX:b:t=Finis	!	!	!
4r	4r	4r	.	4r	.
==	==	==	==	==	==
*-	*-	*-	*-	*-	*-
!!!system-decoration: [(s1,s2)(s3,s4)]
!!!ENC: Marcin Jachim
!!!END: 2020-11-08
!!!ENC: Krzysztof Stępień
!!!END: 2021-11-15
!!!RDF**kern: > = above
!!!RDF**kern: < = below
